packages/graphiql-react/src/icons/docs.svg

<svg
  height="1em"
  viewBox="0 0 20 24"
  fill="none"
  xmlns="http://www.w3.org/2000/svg"
>
  <path
    d="M0.75 3C0.75 4.24264 1.75736 5.25 3 5.25H17.25M0.75 3C0.75 1.75736 1.75736 0.75 3 0.75H16.25C16.8023 0.75 17.25 1.19772 17.25 1.75V5.25M0.75 3V21C0.75 22.2426 1.75736 23.25 3 23.25H18.25C18.8023 23.25 19.25 22.8023 19.25 22.25V6.25C19.25 5.69771 18.8023 5.25 18.25 5.25H17.25"
    stroke="currentColor"
    stroke-width="1.5"
  />
  <line
    x1="13"
    y1="11.75"
    x2="6"
    y2="11.75"
    stroke="currentColor"
    stroke-width="1.5"
  />
</svg>

<svg xmlns="http://www.w3.org/2000/svg" height="1em" fill="none" viewBox="0 0 20 24">
  <path stroke="currentColor" stroke-width="1.5" d="M.75 3A2.25 2.25 0 0 0 3 5.25h14.25M.75 3A2.25 2.25 0 0 1 3 .75h13.25a1 1 0 0 1 1 1v3.5M.75 3v18A2.25 2.25 0 0 0 3 23.25h15.25a1 1 0 0 0 1-1v-16a1 1 0 0 0-1-1h-1M13 11.75H6"/>
</svg>
